!!!COM: Music21
!!!OTL: Tócale La Bocina
!!!OMV: pezas_rumbas_tocale-la-bocina_tocale-la-bocina-partitura.musicxml
**kern
*I"Bagpipes
*I'Bag
*clefG^2
*k[]
*M2/4
=1
!LO:TX:a:t=Andante
*MM96
!LO:TX:a:t=[quarter]=96
16r
8ffL
16ffJk
8ffL
8ffJ
=||
16ffKL
8gg
16ffJk
8eeL
8ddJ
=
16cc#XKL
8gg
16ggJk
8ggL
8ggJ
=
16ggKL
8aa
16ggJk
8ffL
8eeJ
=
16ddKL
8ff
16ffJk
8ffL
8ffJ
=
16ffKL
8gg
16ffJk
8eeL
8ddJ
=
8.cc#XL
16ddJk
8eeL
8ffJ
=
16aaKL
8aa
16ggJk
8ffL
8eeJ
!!linebreak:original
=
16ddKL
8ff
16ffJk
8ffL
8ffJ
=||
16ffKL
8gg
16ffJk
8eeL
8ddJ
=
16cc#XKL
8gg
16ggJk
8ggL
8ggJ
=
16ggKL
8aa
16ggJk
8ffL
8eeJ
=
16ddKL
8ff
16ffJk
8ffL
8ffJ
=
16ffKL
8gg
16ffJk
8eeL
8ddJ
=
8.cc#XL
16ddJk
8eeL
8ffJ
=
16aaKL
8aa
16ggJk
8ffL
8eeJ
=
2dd
!!linebreak:original
=||
8.ffL
16ffJk
8ffL
16eeL
16ddJJ
=
8eeL
[8cc#XJ
4cc#]
=
8.ggL
16ggJk
8ggL
16ffL
16eeJJ
=
8ffL
[8ddJ
8ddL]
8ddJ
=
8.ffL
16ffJk
8ffL
16ggL
16ffJJ
=
8ffL
[8eeJ
8eeL]
8cc#XJ
=
8.eeL
16eeJk
8eeL
16ffL
16eeJJ
!!linebreak:original
=
8eeL
[8ddJ
4dd]
=||
8.ffL
16ffJk
8ffL
16eeL
16ddJJ
=
8eeL
[8cc#XJ
4cc#]
=
8.ggL
16ggJk
8ggL
16ffL
16eeJJ
=
8ffL
[8ddJ
8ddL]
8ddJ
=
8.ffL
16ffJk
8ffL
16ggL
16ffJJ
=
8ffL
[8eeJ
8eeL]
8cc#XJ
=
8.eeL
16eeJk
8eeL
16ffL
16eeJJ
=||
[2dd
!!linebreak:original
=
16ddKL]
8ff
16ffJk
8ffL
8ffJ
=||
8dd
4.r
==
*-
